assets/img/icons_pokemon/normal.svg

<svg width="256" height="256" viewBox="0 0 256 256" fill="none" xmlns="http://www.w3.org/2000/svg">
<g clip-path="url(#clip0_57_760)">
<path d="M128 256C198.692 256 256 198.692 256 128C256 57.3075 198.692 0 128 0C57.3075 0 0 57.3075 0 128C0 198.692 57.3075 256 128 256Z" fill="#828282"/>
<path d="M129.76 204.09C77.5901 204.22 43.1401 155.08 60.7101 107.66C62.2901 103.4 62.7701 99.48 61.0101 95.12C56.6601 84.36 58.9001 74.77 67.4101 66.99C76.0101 59.13 86.0601 58.43 96.1401 63.43C100.25 65.47 103.79 65.19 107.62 64.1C121.07 60.26 134.51 60.24 147.93 64.01C152.94 65.42 157.22 64.91 162.24 62.77C172.03 58.61 181.83 59.42 189.98 67.41C198.32 75.58 199.9 85.23 195.46 95.74C193.76 99.76 193.6 103.34 195.17 107.26C208.62 140.78 193.7 178.9 161.82 196C151.35 201.62 140.1 204.21 129.77 204.08L129.76 204.09Z" fill="white"/>
<path d="M77.2802 133.16C75.9402 106.9 99.2102 81.9701 127.52 82.0701C155.88 82.1601 178.07 104.09 178.87 132.2C179.55 156.25 159.59 182.92 128.48 183.36C100.54 183.76 77.4102 161.09 77.2802 133.16Z" fill="#828282"/>
</g>
<defs>
<clipPath id="clip0_57_760">
<rect width="256" height="256" fill="white"/>
</clipPath>
</defs>
</svg>

<?xml version="1.0" encoding="UTF-8"?>
<svg id="Layer_1" data-name="Layer 1" xmlns="http://www.w3.org/2000/svg" viewBox="0 0 256 256">
  <defs>
    <style>
      .cls-1 {
        fill: #fff;
      }

      .cls-2 {
        fill: #828282;
      }
    </style>
  </defs>
  <circle class="cls-2" cx="128" cy="128" r="128"/>
  <path class="cls-1" d="M129.76,204.09c-52.17,.13-86.62-49.01-69.05-96.43,1.58-4.26,2.06-8.18,.3-12.54-4.35-10.76-2.11-20.35,6.4-28.13,8.6-7.86,18.65-8.56,28.73-3.56,4.11,2.04,7.65,1.76,11.48,.67,13.45-3.84,26.89-3.86,40.31-.09,5.01,1.41,9.29,.9,14.31-1.24,9.79-4.16,19.59-3.35,27.74,4.64,8.34,8.17,9.92,17.82,5.48,28.33-1.7,4.02-1.86,7.6-.29,11.52,13.45,33.52-1.47,71.64-33.35,88.74-10.47,5.62-21.72,8.21-32.05,8.08Z"/>
  <path class="cls-2" d="M77.28,133.16c-1.34-26.26,21.93-51.19,50.24-51.09,28.36,.09,50.55,22.02,51.35,50.13,.68,24.05-19.28,50.72-50.39,51.16-27.94,.4-51.07-22.27-51.2-50.2Z"/>
</svg>
